!!!COM: Henri Reber
!!!CNT: Francais
!!!TXO: Francais
!!!OTL: Chanson de Fortunio
!!!LYR: Alfred de Musset
!!!ODT: 1861/
!!!ENC: Jacob Pegg
!!!YOR: Romantic French Song 1830-1870, David Tunley, ed., New York: Garland Publishing, Inc., 1995, vol. 3
!!NB: Vocal melody and text only encoded.
!!NB: First instance of melodic material only encoded.
**kern	**silbe
*clef G2	*
*k[f#]	*
*M3/4	*
=3	=3
4r	.
4r	.
8r	.
{8b	{Si
=4	=4
8b	vous
8b	cro-
8b	-yez
8b	que
8cc	je
8a	vais
=5	=5
4dd	di-
8dd	-re
8dd	Qui
8g	j'ose
8cc	ai-
=6	=6
2a}	-mer,}
8r	.
{8a	{Je
=7	=7
8a	ne
8a	sau-
8a	-rais,
8a	pour
8b	un
8b	em-
=8	=8
4cc	-pi-
8cc	-re,
8cc	Vous
8a	la
8b	nom-
=9	=9
2g}	-mer.}
8r	.
{8a	{Nous
=10	=10
8a	al-
8a	-lons
8f#	chan-
8a	-ter
8dd	a\
8cc#	la
=11	=11
4b	ron-
8a	-de,
8a	Si
8b	vous
8f#	vou-
=12	=12
4g}	-lez,}
8r	.
{8g	{Que
8a	je
8b	l'a-
=13	=13
4b	-do-
8a	-re
8dd	et
8b	qu'elle
8cc#	est
=14	=14
4b	blon-
8a	-de
8dd	Com-
8cc#	-me
8ee	les
=15	=15
2dd}	ble/s.}
4r	.
=16	=16
4r	.
4r	.
8r	.
{8d	{Je
=17	=17
*k[b-e-]	*
8b-	fais
8b-	ce
8b-	que
8b-	sa
8b-	fan-
8cc	-tai-
=18	=18
4a	-si-
8a	-e
8b-	Veut
8g	m'or-
8b-	-don-
=19	=19
4.a}	-ner,}
8r	.
{8.a	{Et
16a	je
=20	=20
4b-	puis,
8b-	s'il
8b-	lui
8cc	faut
8ff	ma
=21	=21
4ff	vi-
8ee-}	-e,}
{8ee-	{La
8cc	lui
8dd	don-
=22	=22
4b-}	-ner.}
4r	.
8r	.
{8b-	{Du
=23	=23
8.ee-	mal
16ee-	qu'une
8dd	a-
8dd	-mour
8cc#	i-
8cc#	-gno-
=24	=24
4dd	-re/-
8dd	-e
8dd	Nous
8ccn	fait
8b-	souf-
=25	=25
4.a}	-frir,}
8r	.
{4a	{J'en
=26	=26
8.b-	por-
16b-	-te
8.a	l'a^-
16g	-me
8.ee-	de-
16ee-	-chi-
=27	=27
(2ee-	-re/-
4a)	-e
=28	=28
4b-	Jus-
4cc	-qu'a
4cc#	mou-
=29	=29
2dd}	-rir.}
8r	.
{8d	{Mais
=30	=30
*k[f#]	*
8b	J'ai-
8b	-me
8b	trop
8b	por
8cc	que
8a	je
=31	=31
4dd	di-
8dd	e
8dd	Qui
8g	j'ose
8cc	ai-
=32	=32
2a}	-mer,}
8r	.
{8a	{Et
=33	=33
8a	je
8a	veux
8a	mou-
8a	-rir
8b	pour
8b	ma
=34	=34
4cc	mi-
8cc	-e,
8cc	Sans
8b	la
8cc	nom-
=35	=35
4a}	-mer,}
8r	.
{8cc	{Sans
8a	la
8b	nom-
=36	=36
2g}	-mer.}
4r	.
*-	*-
